assets/img/svg/boxicons/bxs-timer.svg

<svg xmlns="http://www.w3.org/2000/svg" width="24" height="24" viewBox="0 0 24 24"><path d="M13 3h4v2h-4zM3 8h4v2H3zm0 8h4v2H3zm-1-4h3.99v2H2zm19.707-5.293-1.414-1.414L18.586 7A6.937 6.937 0 0 0 15 6c-3.859 0-7 3.141-7 7s3.141 7 7 7 7-3.141 7-7a6.968 6.968 0 0 0-1.855-4.73l1.562-1.563zM16 14h-2V8.958h2V14z"/></svg>

<svg xmlns="http://www.w3.org/2000/svg" width="24" height="24" viewBox="0 0 24 24"><path d="M15 6c-3.859 0-7 3.14-7 7s3.141 7 7 7 7-3.14 7-7S18.859 6 15 6zM16 14h-2v-4h2V14zM12 2H18V4H12zM3 8H7V10H3zM3 16H7V18H3zM2 12H5.99V14H2z"/><path transform="rotate(-134.999 21 5)" d="M19.586 4H22.413999999999998V6H19.586z"/></svg>
